X: 1
T:Salute to The Royal Fendersmith  "CYMRU"
M:12/8
L:1/8
Q:80
C:P/M J.M. Banks
S:Seconds
K:HP
[| {g}A2B|
{gcd}c2e{gcd}c3{e}A3-A2{d}c|
{g}e2f{gef}e6-e3|  !
{ag}a2f{gef}e3{g}A3-A2f|
{gef}e2c{gBG}B3-B2c{g}c2d| |
{gcd}e2c{gef}e3{d}c3-c2{e}A|  !
{g}c2d{gcd}c6-c3|
{gfg}f2d{gcd}c3{g}e3-e2d|
{gef}e2d{gcd}c2d{gef}e2d{gcd}c2A|] [|  !
{g}c2d{gcd}c3{gef}e6|
{gfg}f2d{gcd}c6-c2e|
{gcd}c2d{gef}e3{d}c3-c2d|  !
{gcd}c2e{Gdc}d6-d2c| |
{g}c2d{gcd}c3{gef}e6|
{gfg}f2d{gcd}c6-c3|  !
{gfg}f2d{gcd}c3{g}e3-e2d|
{gef}e2d{gcd}c2d{gef}e2d{gcd}c3|]
